X:1
T:もののけ姫
T:もののけ姫
%%score [ 1 2 3 4 ]
L:1/8
Q:1/4=84
M:4/4
K:Eb
V:1 treble nm="Soprano" snm="S."
V:2 treble nm="Alto" snm="A."
V:3 treble nm="Tenor" snm="T."
V:4 bass nm="Bass" snm="B."
V:1
 G8- | G8 | F8- | F8 | A4 z4 | B4 z4 | G8- | G8 |: CGGF G3 G | BF- F6 | CGGF G3 G | B4 z2 GB | %12
 cccc c3 c | B2 F2 G4 | FFFG F2 C2 | G6 z2 | CGGF G3 B | F8 | CGGF G G2 G | B4 z2 GB | cccc c3 c | %21
 B2 F2 G4 | FFFG F C2 E | E6 z2 | cccd c3 c | e2 d2 G4 | F2 B2 G2 FG | ddde d3 B | e2 d2 G3 G | %29
 c>B- BA B4 |[M:2/4] z2 GB |[M:4/4] c2 e2 d G2 B | c4 z2 GB | c2 e2 d G2 B | c8- |1 c8 | %36
 z2 c2 z2 c2 | z2 c2 z2 c2 | z2 c2 z2 c2 | z2 c2 z2 c2 :|2 c4 z2 GB || c2 e2 d G2 B | c8 | %43
 !fermata!G8 |] %44
V:2
 z2 F6- | F8 | z2 E6- | E8 | E4 z4 | F4 z4 | D8- | D8 |: z CDC G4 | z CDC G4 | z CDC G4 | %11
 z B,CB, F4 | z A,B,A, F4 | z B,FB GB,EG | z F,CB, F4 | z =A,CF z G,=B,G | E8 | z CDC G4 | E8 | %19
 z B,CB, F4 | z A,B,A, F4 | z B,FB GB,EG | z A, C2 z A, C2 | z A,B,E FEB,G, | z G,CE G4 | %25
 z B,DG B4 | A4 G4 | F8 | G8 | E8- |[M:2/4] E4 |[M:4/4] A4 B4 | c8 | A4 B4 | G8- |1 G8 | E8 | G8 | %38
 E8 | F8 :|2 G8 || G8 | F8 | !fermata!=E8 |] %44
V:3
 z4 C2 D2- | D8 | z4 B,2 C2- | C8 | _D4 z4 | E4 z4 | z =DGA BAGD | z DGA B4 |: E8 | D8 | E8 | D8 | %12
 z8 | z8 | z8 | =A4 =B4 | c8- | c2 d2 B2 F2 | G8 | z8 | E8 | F4 G4 | A8 | G8 | E8 | F8 | C4 B,4 | %27
 B,8 | E4 D4 | C4 B,4- |[M:2/4] B,4 |[M:4/4] E4 F4 | z CEG c4 | E4 F4 | z G,CF GCFG |1 %35
 =EG,CE GCEG | C8 | D8 | A,8 | B,8 :|2 =EG,CE GCEG || C4 D4 | B,8 | !fermata!C8 |] %44
V:4
 z8 | z8 | z8 | z8 | _F,4 z4 | _G,4 z4 | =G,8- | G,8 |: C,8 | B,,8 | A,,8 | G,8 | F,8 | D,4 E,4 | %14
 _D,8 | =D,4 G,4 | C,8 | B,,8 | A,,8 | G,8 | F,8 | D,4 E,4 | F,4 B,,4 | E,8 | C,8 | G,8 | F,4 E,4 | %27
 G,8 | C,4 B,,4 | A,,4 G,,4- |[M:2/4] G,,4 |[M:4/4] F,4 G,4 | A,8 | F,4 G,4 | C,8- |1 C,8 | B,8 | %37
 B,8 | F,8 | G,8 :|2 C,8 || A,,4 B,,4 | G,8 | !fermata!C,8 |] %44

